X: 1432
T:The Graf Spee
R:Reel
S:Paddy Canny, Clare (fiddle)
D:Home tape of unknown provenance
Z:Bernie Stocks
N:As played
H:"The tune he brought back from America"
M:4/4
K:C
{F}EDCD EG(3.G.G.G | AGcG AGcG | EzCD EG(3.G.G.G | EGcG EDD2 |
{F}EDCD EG^FG | AG^FG (3.E.F.G cG | EzCD EG(3.G.G.G | EGcG EDD2 ||
e^fed cBcA | GE~E2 GAcd | e^fed cBcA | GEcE {F}EDD2 |
edcB cAGE | Gced cAAd | eaag (3efg ed | cAGE {F}EDD2 ||
eg~g2 {a}gedg | ea{b}ag ~a3g | eged cBcd | eaag (3efg dg :|
ec{d}cB cGAG | EGAc {d}cAGE | GAcd ezdc |1 AGcE {F}EDDg :|2 AGcE {F}EDD2 ||
(3.e.^f.g c2 (3.e.f.g c2 | (3.^f.g.a d2 (3.f.g.a d2 | ecgc ecdc | ABcd edd2 |
(3.e.e.e ae gefd | ecdB cAGE | GAcd ezdc | AGcE {F}EDD2 ||
